X: 21
T: No_11_Song_in_the_Canoes.krn
N: Derived from No_11_Song_in_the_Canoes.krn
%%abc-version 2.0
%%abcx-abcm2ps-target-version 5.9.1 (29 Sep 2008)
%%abc-creator hum2abc beta
%%abcx-conversion-date 2019/03/15 08:36:13
%%humdrum-veritas 2933725681
%%humdrum-veritas-data 3002508780
%%linebreak <none>
%%barnumbers 0
L: 1/16
M: 2/4
K: F clef=bass
[K:clef=bass][M:2/4]A,4-A,2G,A, | 
G,4F, z A,G, | 
G,4F,2A,G, | 
G,F,A,G, G,2F,2 ||  
[M:3/4]F,4z4(3G,2G,2A,2 | 
A,6G,2 A,3/G,/G,F,/ z/ | 
G,G,G,F,F,4z2 z A, ||  
[M:2/4]A,4-A,G,B,A, | 
G,4F, z A,G, | 
G,4F, z A,G, | 
G,F,B,A, G,2F,2 | 
F,4z4 | 
z8 | 
z4z2 G,2 | 
G,6A,G, | 
G,4z2 A,G, | 
G,4F, z A,G, | 
G,F,B,A, G,2F,2 ||  
[M:3/4]F,4z4G,G,A,2 | 
A,6G,2 A,3/G,/G,F, | 
G,G,G,F, F,2 z2 z2 C2 ||  
[M:2/4]A,2G,2 F, z A,2 | 
G,2G,2 A,2G,2 | 
G,G,G,2 F, z G,2 | 
G,2G,2 F, z G,2 | 
G,2G,2 A,2G,2 | 
G,G,G,2F,4 |]  



